src/assets/icons/time,fancy,sunset-time.svg

<svg width="48" height="48" viewBox="0 0 48 48" fill="none" xmlns="http://www.w3.org/2000/svg">
<g clip-path="url(#clip0_7:74978)">
<path fill-rule="evenodd" clip-rule="evenodd" d="M5.00023 35.6406L3.4238 37.0519C2.85873 37.5577 2.85873 38.4424 3.4238 38.9483L5.49699 40.8043C5.03856 39.696 5.00299 38.1048 5.00023 35.6406ZM7.94979 43.0001L7.52986 42.6242C8.6863 42.9894 10.3222 42.9998 12.7824 43.0001H7.94979ZM22.0769 48.0001C22.6996 48.1191 23.3425 48.1815 24 48.1815C24.6575 48.1815 25.3004 48.1191 25.9231 48.0001H39.0056L39.2201 51.8792C39.2619 52.6364 38.6363 53.262 37.8791 53.2202L30.7374 52.8253C30.3515 52.804 29.9768 52.9592 29.719 53.2472L24.9482 58.5763C24.4423 59.1414 23.5576 59.1414 23.0518 58.5763L18.281 53.2472C18.0232 52.9592 17.6485 52.804 17.2626 52.8253L10.1209 53.2202C9.36365 53.262 8.73808 52.6364 8.77994 51.8792L8.99439 48.0001H22.0769ZM40.0502 43.0001H35.2176C37.6778 42.9998 39.3137 42.9894 40.4701 42.6242L40.0502 43.0001ZM44.5762 38.9483L42.503 40.8043C42.9614 39.696 42.997 38.1048 42.9998 35.6406L44.5762 37.0519C45.1413 37.5577 45.1413 38.4424 44.5762 38.9483Z" fill="black"/>
<path d="M24 14V2M24 14L28.5 9.5M24 14L19.5 9.5" stroke="black" stroke-width="3" stroke-linecap="round" stroke-linejoin="round"/>
<path fill-rule="evenodd" clip-rule="evenodd" d="M5.49676 40.8042C5.03833 39.6959 5.00276 38.1047 5 35.6405L8.75266 32.281C9.04065 32.0232 9.19586 31.6485 9.17453 31.2626L8.77971 24.1209C8.73785 23.3637 9.36342 22.7381 10.1207 22.7799L17.2623 23.1748C17.6483 23.1961 18.023 23.0409 18.2808 22.7529L23.0516 17.4238C23.5574 16.8587 24.4421 16.8587 24.948 17.4238L29.7187 22.7529C29.9765 23.0409 30.3512 23.1961 30.7372 23.1748L37.8788 22.7799C38.6361 22.7381 39.2617 23.3637 39.2198 24.1209L38.825 31.2626C38.8037 31.6485 38.9589 32.0232 39.2469 32.281L42.9995 35.6405C42.9968 38.1047 42.9612 39.6959 42.5028 40.8042L40.4699 42.6241C39.2797 43 37.5816 43 34.9998 43H32.8709C33.7051 41.5231 34.1811 39.8172 34.1811 38C34.1811 32.377 29.6228 27.8186 23.9998 27.8186C18.3768 27.8186 13.8184 32.377 13.8184 38C13.8184 39.8172 14.2945 41.5231 15.1287 43H12.9998C10.4179 43 8.71984 43 7.52963 42.6241L5.49676 40.8042Z" fill="black"/>
<path opacity="0.2" fill-rule="evenodd" clip-rule="evenodd" d="M33.2354 43H14.7646C13.9581 41.5134 13.5 39.8102 13.5 38C13.5 32.201 18.201 27.5 24 27.5C29.799 27.5 34.5 32.201 34.5 38C34.5 39.8102 34.0419 41.5134 33.2354 43Z" fill="black"/>
</g>
<defs>
<clipPath id="clip0_7:74978">
<rect width="48" height="48" fill="white"/>
</clipPath>
</defs>
</svg>

<svg xmlns="http://www.w3.org/2000/svg" width="48" height="48" fill="none" viewBox="0 0 48 48">
  <g clip-path="url(#clip0_7:74978)">
    <path fill="#000" fill-rule="evenodd" d="M5 35.64l-1.576 1.412a1.273 1.273 0 000 1.896l2.073 1.856c-.458-1.108-.494-2.7-.497-5.163zM7.95 43l-.42-.376c1.156.365 2.792.376 5.252.376H7.95zm14.127 5a10.238 10.238 0 003.846 0h13.083l.214 3.88a1.273 1.273 0 01-1.34 1.34l-7.143-.395a1.273 1.273 0 00-1.018.422l-4.77 5.33a1.273 1.273 0 01-1.897 0l-4.771-5.33a1.273 1.273 0 00-1.018-.422l-7.142.395a1.273 1.273 0 01-1.341-1.34L8.994 48h13.083zm17.973-5h-4.832c2.46 0 4.096-.01 5.252-.376l-.42.376zm4.526-4.052l-2.073 1.856c.458-1.108.494-2.7.497-5.163l1.576 1.41c.565.507.565 1.391 0 1.897z" clip-rule="evenodd"/>
    <path stroke="#000" stroke-linecap="round" stroke-linejoin="round" stroke-width="3" d="M24 14V2m0 12l4.5-4.5M24 14l-4.5-4.5"/>
    <path fill="#000" fill-rule="evenodd" d="M5.497 40.804c-.459-1.108-.494-2.7-.497-5.163l3.753-3.36c.288-.258.443-.633.422-1.018L8.78 24.12a1.273 1.273 0 011.34-1.341l7.142.395c.386.021.761-.134 1.019-.422l4.77-5.33a1.273 1.273 0 011.897 0l4.77 5.33c.259.288.633.443 1.02.422l7.14-.395a1.273 1.273 0 011.342 1.34l-.395 7.143c-.021.385.134.76.422 1.018l3.752 3.36c-.002 2.464-.038 4.055-.496 5.163l-2.033 1.82C39.28 43 37.582 43 35 43h-2.13a10.135 10.135 0 001.311-5c0-5.623-4.558-10.181-10.181-10.181-5.623 0-10.182 4.558-10.182 10.181 0 1.817.476 3.523 1.31 5H13c-2.582 0-4.28 0-5.47-.376l-2.033-1.82z" clip-rule="evenodd"/>
    <path fill="#000" fill-rule="evenodd" d="M33.235 43h-18.47a10.454 10.454 0 01-1.265-5c0-5.799 4.701-10.5 10.5-10.5S34.5 32.201 34.5 38c0 1.81-.458 3.513-1.265 5z" clip-rule="evenodd" opacity=".2"/>
  </g>
  <defs>
    <clipPath id="clip0_7:74978">
      <path fill="#fff" d="M0 0h48v48H0z"/>
    </clipPath>
  </defs>
</svg>
